src/icons/search.svg

<?xml version="1.0" encoding="UTF-8" standalone="no"?>
<svg width="20px" height="20px" viewBox="0 0 20 20" version="1.1" xmlns="http://www.w3.org/2000/svg" xmlns:xlink="http://www.w3.org/1999/xlink">
    <!-- Generator: Sketch 39.1 (31720) - http://www.bohemiancoding.com/sketch -->
    <title>Page 1</title>
    <desc>Created with Sketch.</desc>
    <defs></defs>
    <g id="Page-1" stroke="none" stroke-width="1" fill="none" fill-rule="evenodd">
        <path d="M19.6015482,17.6785496 L15.5875479,13.6657346 C18.0332228,10.2976722 17.7392915,5.55921406 14.7021982,2.52330599 C13.0203893,0.841497065 10.8167929,0 8.61290024,0 C6.40811867,0 4.204226,0.841497065 2.52271338,2.52330599 C-0.840904461,5.88662753 -0.840904461,11.3403582 2.52271338,14.703976 C4.204226,16.3857849 6.40930388,17.227282 8.61290024,17.227282 C10.3883405,17.227282 12.1628919,16.6809015 13.6651419,15.5893257 L17.677957,19.6021408 C17.9431471,19.8673309 18.2913017,20.0003704 18.6397526,20.0003704 C18.9882035,20.0003704 19.3366544,19.8673309 19.6015482,19.6021408 C20.1328173,19.0708717 20.1328173,18.2098187 19.6015482,17.6785496 Z M3.86881239,13.3566918 C1.25276394,10.7409396 1.25276394,6.48397193 3.86881239,3.86821978 C5.13609511,2.60064075 6.82116335,1.90285005 8.61290024,1.90285005 C10.4046371,1.90285005 12.0900017,2.60064075 13.3572844,3.86821978 C15.9730365,6.48397193 15.9730365,10.7409396 13.3572844,13.3566918 C12.0900017,14.6239745 10.4046371,15.3220615 8.61290024,15.3220615 C6.82027445,15.3220615 5.13609511,14.6239745 3.86881239,13.3566918 Z" fill="#7E8991"></path>
    </g>
</svg>

<svg xmlns="http://www.w3.org/2000/svg" width="20" height="20"><path fill="#029DF7" fill-rule="evenodd" d="m19.602 17.679-4.014-4.013c2.445-3.368 2.151-8.107-.886-11.143A8.585 8.585 0 0 0 8.612 0a8.585 8.585 0 0 0-6.09 2.523 8.613 8.613 0 0 0 0 12.181 8.587 8.587 0 0 0 6.09 2.523c1.776 0 3.55-.546 5.053-1.638l4.013 4.013c.265.265.613.398.962.398a1.36 1.36 0 0 0 .962-2.322ZM3.869 13.357a6.717 6.717 0 0 1 0-9.489 6.665 6.665 0 0 1 4.744-1.965c1.792 0 3.477.698 4.744 1.965a6.717 6.717 0 0 1 0 9.489 6.667 6.667 0 0 1-4.744 1.965 6.664 6.664 0 0 1-4.744-1.965Z"/></svg>
